assets/flags-color/Fj.svg

<svg xmlns="http://www.w3.org/2000/svg" viewBox="0 0 512 512"><path fill="#82afff" d="M0 0h512v512H0z"/><path fill="#f5f5f5" d="M293.012 238.404V371.67c0 54.045 75.919 81.823 85.17 85.005 9.241-3.182 85.17-31.003 85.17-85.005V238.404h-170.34z"/><path fill="#ff4b55" d="M466.357 299.526v-64.128H290.006v64.128h76.152v60.12h-76.152v24.048h76.152v72.143l12.024 4.008 12.024-4.008v-72.143h76.151v-24.048h-76.151v-60.12z"/><path fill="#f5f5f5" d="M318.066 268.518c5.965 9.911-4.356 20.231-14.267 14.267a6.727 6.727 0 01-2.284-2.284c-5.965-9.911 4.356-20.231 14.267-14.267a6.727 6.727 0 012.284 2.284z"/><g fill="#ffe15a"><path d="M329.056 260.943c-3.211-1.766-8.991-6.502-11.319-5.699-2.328.803-2.849 2.449-6.105 2.7-3.173.244-8.183 3.34-6.096 6.773 2.715 4.467 11.212.992 11.774-1.095 0 0 2.087.334 3.841-.083 0 0 3.49 4.871 7.825 4.55 4.335-.321 6.342-5.699 5.378-5.699s-5.298-1.447-5.298-1.447zM342.382 282.216c-.722 1.325-6.222 6.026-15.413 8.188-2.047.482-1.686 2.89-3.733 1.686s-7.706-2.167-12.764-2.408-5.56-4.926-4.696-6.623c1.096-2.153 9.17-3.466 10.615-.817 1.445 2.649 2.527 2.096 6.122 2.864 2.228.476 2.288 1.565 2.288 1.565s4.094-4.094 7.586-5.298 6.502-3.853 7.104-3.853 3.733.843 3.733.843l-.842 3.853zM355.748 268.007c5.298 1.927 20.952 1.325 37.689-4.094 16.737-5.418 21.554-6.382 29.742-3.371 8.188 3.01 11.733-6.5 6.356-8.109-8.447-2.528-34.569 12.65-53.482 4.133 0 0-.557 2.29.045 3.374 0 0-13.727.482-10.476-13.727 0 0 .935 5.187 7.425 4.591 12.274-1.127 14.028 7.515 40.017-.497 14.429-4.448 25.639-2.265 25.739 4.756.12 8.451-11.53 10.416-11.53 10.416s4.535 9.272 13.687 5.178c9.151-4.094 9.633 2.97 10.436 5.378s2.328 4.736 4.335 4.977c0 0 1.445 4.335.883 4.897s-4.335 5.298-8.108 5.298h-11.961s-2.167-5.378 2.007-5.459c4.174-.08 9.232-.401 8.589-2.649-.642-2.248-3.933-3.291-3.853-5.78 0 0-9.713 7.064-15.734-1.284l-.161 3.933s-7.305-1.365-9.954-7.225c0 0 .722 6.582-5.539 5.619 0 0 1.284 1.927 3.452 3.291 2.167 1.365-.08 4.335-4.255 6.823s-17.018 9.713-22.878 2.328 1.284-11.64 3.05-11.158c1.766.482 6.823 8.268 10.275 7.225 3.452-1.044 5.138-4.576 2.248-6.743-2.89-2.167-5.055-4.217-3.232-6.404 2.505-3.006 11.741-2.105 11.42-4.112-.321-2.007-8.91-1.445-14.53 4.174-5.619 5.619-30.023 18.543-39.736 10.355-9.713-8.187-1.966-16.134-1.966-16.134z"/></g><path fill="#ffd25a" d="M352.617 264.395s7.345 7.225 19.747 9.512c0 0-2.288 3.492-8.91 2.529 0 0 2.649 2.288 4.455 6.141 0 0-4.214.963-7.947-1.084 0 0 .482 3.131 2.288 5.659 0 0-4.937 0-9.151-3.733l-1.686 4.816s-2.89-1.927-4.696-5.659c0 0-3.371 2.649-6.743 2.649 0 0 1.204-3.612 1.204-5.659 0 0-4.816 2.89-8.79 1.806 0 0 .12-5.057 1.445-6.502 0 0-3.131.361-5.178-.722 0 0 1.204-2.769 1.806-4.576 0 0-3.372.12-5.419-1.806 0 0 6.502-2.529 7.947-4.937l19.628 1.566z"/><path fill="#ffbe5a" d="M340.776 244.166c1.445.803 3.773 2.569 4.736 5.539 0 0 2.649-3.853 7.225-4.576 0 0 2.007 2.248 1.445 8.108 0 0 5.057-1.445 7.787 1.204 0 0-5.378 1.204-7.867 5.699 0 0-.965 4.593.721 7.322 0 0-1.879.251-3.771-.579 0 0-.963 4.576 0 6.021 0 0-2.649-.321-4.094-3.131 0 0-2.167 3.291-2.007 5.298 0 0-2.89-1.686-3.05-4.174 0 0-2.007 3.773-4.174 4.094 0 0-.241-5.298-1.204-7.305 0 0-1.846 2.007-4.255 1.927 0 0 0-4.094 2.007-6.021 0 0-3.371 1.044-5.218-2.649 0 0 5.539 1.605 6.904-1.766 1.365-3.372 1.766-4.415 3.693-6.261 1.925-1.847 1.122-8.75 1.122-8.75z"/><path fill="#ffe15a" d="M352.617 259.699s-6.863 13.125-13.125 9.151c-6.86-4.354 1.686-14.57 2.769-15.653.001-.001 5.058 1.324 10.356 6.502z"/><path fill="#5abea0" d="M327.863 326.922s-.72-9.427-5.83-12.146c-4.806-2.557-7.642-3.836-8.194-7.112 0 0 4.176 1.918 8.588 3.116 3.987 1.083 7.878 7.831 6.697 15.422l-1.261.72z"/><path fill="#b46446" d="M311.732 334.673l.65 1.199.473 2.577-.945 3.056s3.754 1.493 4.609 6.592c.587 3.5 2.127 4.255 3.073 3.536.945-.719 1.518-1.57.532-5.394-1.259-4.882-4.668-9.529-4.668-9.529l-2.659-4.075-1.065 2.038z"/><g fill="#5abea0"><path d="M315.455 336.71c-3.427-4.435-12.763-13.664-14.536-1.079 0 0-3.66-10.603 3.191-10.188 7.917.48 11.345 11.267 11.345 11.267z"/><path d="M312.382 335.871c-2.954-3.236-3.9-5.633-5.436-11.626s-2.009-7.791-3.782-7.671-2.836 2.038-2.836 5.873c0 0-5.2-4.675-1.654-8.39s11.463-1.678 11.936 4.914.355 11.027 2.718 16.541l-.946.359z"/><path d="M313.209 332.995s-6.263-13.784 11.345-21.215c0 0-15.599-4.195-13.709 17.979l2.364 3.236zM315.218 337.909s-13.236-5.034-12.054 7.192c0 0 2.245-5.753 8.745-3.596l3.309-3.596z"/></g><path fill="#b46446" d="M330.227 333.075c0 3.576 1.406 13.951-.591 15.262-1.005.659-3.841.12-3.604-2.397.236-2.517 1.359-14.743 1.359-17.739-.001-2.997 2.836 4.874 2.836 4.874z"/><g fill="#5abea0"><path d="M321.797 341.385c2.285-2.317 2.994-7.591 2.206-14.623 0 0 4.727 3.276 6.224 6.313 0 0 1.497-6.952-3.388-8.79s-7.485-.799-8.351 1.438c-.867 2.237 1.493 4.739 2.521 8.39.945 3.357.788 7.272.788 7.272z"/><path d="M329.912 331.237s.788-3.676 3.388-5.194c0 0 5.357 3.756 4.963 8.79 0 0 1.418-6.872-1.497-9.589s-6.224-3.436-7.878-1.039c-1.655 2.397 1.024 7.032 1.024 7.032z"/><path d="M331.172 324.205s1.654-9.829 5.83-11.986 11.896-4.155 12.369-4.635c0 0-9.218.479-10.715.479s-9.769 5.993-9.769 14.863.788 2.797 1.024 2.717c.237-.08 1.261-1.438 1.261-1.438z"/></g><path fill="#b46446" d="M335.013 350.195c.945 1.978 3.191 2.457 3.663 1.438.473-1.019 2.6-8.81 2.6-8.81l-3.014-1.438-3.249 8.81z"/><path fill="#5abea0" d="M352.68 317.493c3.703-2.158 6.145 4.235 6.145 4.235 0-7.527-2.364-9.909-8.272-7.032-1.78.867-3.081 2.682-4.04 4.787-2.992-8.594-9.589-8.463-9.589-8.463l-1.497 1.039c5.402 1.038 8.495 7.512 9.805 11.044-.706 2.577-1.047 5.075-1.193 6.505-3.54 3.67-5.775 11.776-5.775 11.776s2.541 1.498 3.014 1.438c0 0 1.654-5.094 3.723-4.974 2.068.12 4.491 3.416 4.55 5.514 0 0 3.073-6.233-.591-8.63-1.376-.901-2.477-1.242-3.366-1.259l2.716-3.056c4.432.839 7.504 5.034 7.504 5.034.09-7.491-3.218-8.953-6.706-8.325.625-3.015 1.995-8.714 3.572-9.633z"/><path fill="#b46446" d="M425.627 327.866v21.244c0 1.028-4.499 5.025-4.499 5.025h11.961s-3.841-4.454-3.841-5.025.878-19.645.878-19.645l-4.499-1.599z"/><g fill="#5abea0"><path d="M426.396 330.036c-2.853-.228-10.754 6.282-13.058 16.218 0 0-7.023-11.421 10.535-20.901 0 0-7.791-2.284-19.643 10.051-.64.666-1.207-18.617 20.082-13.477 0 0-8.12-11.764-24.8-2.513 0 0 11.083-19.873 27.434-2.056 0 0 .11-15.419.219-13.82.11 1.599 1.317 8.68 1.317 8.68l3.182-5.596-2.524 11.421s14.595-19.416 26.995.799c0 0-16.021-6.624-23.703.799 0 0 16.46-4.454 15.143 14.619 0 0-6.474-11.307-17.009-9.822 0 0 12.4 5.711 8.45 21.129-.001.002-7.473-15.119-12.62-15.531zM321.605 398.675c-.611-.828-1.467-1.225-2.307-1.328.323-1.114.538-1.623.452-2.434.257.064.501.179.764.21l.112-.917c-.975-.117-2.036-.554-3.128-1.22a3.321 3.321 0 001.16-2.547c0-1.179-.541-2.166-1.31-2.727-.769.561-1.31 1.548-1.31 2.727 0 .886.362 1.594.84 2.164a15.93 15.93 0 01-1.227-.955c-.107-.725-.384-1.455-1.028-2.042-.872-.794-1.965-1.059-2.898-.869-.103.946.262 2.011 1.134 2.805.672.613 1.464.823 2.225.839.173.147.355.295.547.444a3.563 3.563 0 00-1.649.196c-1.108.403-1.85 1.249-2.115 2.163.791.53 1.903.701 3.011.298.966-.352 1.59-1.061 1.925-1.838.649.415 1.36.759 2.096 1.035l-.117.015c-.024.665.019.938-.311 2.174a3.32 3.32 0 00-2.771-.393c-1.131.333-1.925 1.13-2.246 2.026.755.579 1.855.819 2.986.486.849-.25 1.427-.798 1.838-1.417-.155.469-.351.954-.57 1.447-.665.307-1.288.78-1.669 1.563-.516 1.06-.461 2.184-.016 3.025.937-.168 1.855-.819 2.371-1.88.398-.818.376-1.637.177-2.372.092-.208.182-.424.272-.65.087.519.298 1.044.653 1.526.7.949 1.721 1.422 2.673 1.418.286-.908.136-2.023-.564-2.972z"/></g><path fill="#ffecde" d="M316.183 395.714c4.006 0 9.244-.154 9.09 3.852-.154 4.006-4.622 17.564 5.701 21.724s11.555 3.544 11.555 3.544l4.622 10.631 11.247-4.006-10.785-8.628s-.924-5.855-3.544-9.86c0 0 6.625-3.389 8.936-6.317l-4.622-.308s6.009-3.852 8.782-8.166l-3.235.308s3.698-3.698 4.622-8.012c0 0-6.009 6.009-12.171 6.779 0 0 2.619-6.779 3.235-9.398 0 0-4.622 2.927-7.857 4.16s-8.32 1.387-6.009 11.863c0 0-2.773-2.311-4.468-7.241-1.695-4.93-2.311-6.779-4.622-6.779-3.775 0-5.238 3.389-5.238 3.389l-5.239 2.465z"/><path fill="#b46446" d="M429.893 397.695c1.386-1.848 4.158-7.623 6.583-6.121 2.425 1.501 5.659 5.197 7.623 3.465 1.963-1.732 2.079-3.927-.924-4.966-3.003-1.039-6.352-2.772-8.431-2.079s-8.431 7.276-8.431 7.276l3.58 2.425z"/><path fill="#ffe15a" d="M411.991 402.661c-.115-2.656 1.677-14.19 8.893-12.704 3.927.808 5.858 4.971 10.972 6.93 5.428 2.079 8.893 3.349 7.854 6.93-1.039 3.58-3.003 7.854-7.507 8.893-4.504 1.039-20.212-10.049-20.212-10.049z"/><g fill="#5abea0"><path d="M407.256 412.17c-1.54.308-7.238 8.624-.462 17.093 0 0 8.316 3.388 14.937-1.848s1.694-7.854 1.694-7.854l-16.169-7.391z"/><path d="M407.834 413.98c-.693-1.039-.577-1.809-.577-1.809s-.346-11.934 4.62-12.165c4.966-.231 22.868 11.549 22.868 13.513 0 1.963-5.775 7.623-10.625 8.778s-16.286-8.317-16.286-8.317z"/></g><path fill="#b46446" d="M395.591 442.853s15.775-7.087 12.81-12.853c-2.14-4.16-6.95-1.494-7.71 1.682-.948 3.964-4.032 9.489-5.1 11.171z"/><path fill="#464655" d="M378.182 463l-.912-.29c-.916-.294-22.694-7.308-44.83-21.899-29.727-19.59-45.44-43.5-45.44-69.141V232.392h182.363V371.67c0 25.641-15.713 49.552-45.44 69.142-22.136 14.592-43.914 21.606-44.83 21.899l-.911.289zm-85.17-224.596V371.67c0 54.045 75.919 81.823 85.17 85.005 9.241-3.182 85.17-31.003 85.17-85.005V238.404h-170.34z"/><g fill="#41479b"><path d="M94.316 0H0v19.977L94.316 81.77zM0 68.299v26.017h39.71zM0 161.684v26.017l39.71-26.017zM256 19.977V0h-94.316v81.77zM256 187.701v-26.017h-39.71zM161.684 174.23V256H256v-19.977zM256 94.316V68.299l-39.71 26.017zM0 236.023V256h94.316v-81.77z"/></g><g fill="#f5f5f5"><path d="M256 236.023v-19.964l-83.768-54.375h24.748L256 199.995v-12.294l-39.71-26.017H256V148.21H148.211V256h13.473v-81.77zM0 148.21v13.474h39.71L0 187.701v18.901l69.197-44.918h24.748L0 222.666v13.357l94.316-61.793V256h13.473V148.21zM107.789 0H94.316v81.77L0 19.977v21.862l80.842 52.477H56.094L0 57.904v10.395l39.71 26.017H0v13.474h107.789zM256 107.79V94.316h-39.71L256 68.299V49.157l-69.568 45.159h-24.748L256 33.093V19.977L161.684 81.77V0h-13.473v107.79z"/></g><g fill="#ff4b55"><path d="M256 148.21v-40.42H148.211V0h-40.422v107.79H0v40.42h107.789V256h40.422V148.21z"/><path d="M69.197 161.684L0 206.602v16.064l93.945-60.982zM172.232 161.684L256 216.059v-16.064l-59.02-38.311zM80.842 94.316L0 41.839v16.065l56.094 36.412zM186.432 94.316L256 49.157V33.093l-94.316 61.223z"/></g></svg>

<svg xmlns="http://www.w3.org/2000/svg" x="0" y="0" enable-background="new 0 0 512 512" version="1.1" viewBox="0 0 512 512" xml:space="preserve"><path fill="#82AFFF" d="M0 0H512V512H0z"/><path fill="#F5F5F5" d="M293.012 238.404V371.67c0 54.045 75.919 81.823 85.17 85.005 9.241-3.182 85.17-31.003 85.17-85.005V238.404h-170.34z"/><path fill="#FF4B55" d="M466.357 299.526 466.357 235.398 290.006 235.398 290.006 299.526 366.158 299.526 366.158 359.646 290.006 359.646 290.006 383.694 366.158 383.694 366.158 455.837 378.182 459.845 390.206 455.837 390.206 383.694 466.357 383.694 466.357 359.646 390.206 359.646 390.206 299.526z"/><path fill="#F5F5F5" d="M318.066 268.518c5.965 9.911-4.356 20.231-14.267 14.267a6.727 6.727 0 0 1-2.284-2.284c-5.965-9.911 4.356-20.231 14.267-14.267a6.727 6.727 0 0 1 2.284 2.284z"/><g fill="#FFE15A"><path d="M329.056 260.943c-3.211-1.766-8.991-6.502-11.319-5.699-2.328.803-2.849 2.449-6.105 2.7-3.173.244-8.183 3.34-6.096 6.773 2.715 4.467 11.212.992 11.774-1.095 0 0 2.087.334 3.841-.083 0 0 3.49 4.871 7.825 4.55 4.335-.321 6.342-5.699 5.378-5.699s-5.298-1.447-5.298-1.447zM342.382 282.216c-.722 1.325-6.222 6.026-15.413 8.188-2.047.482-1.686 2.89-3.733 1.686s-7.706-2.167-12.764-2.408-5.56-4.926-4.696-6.623c1.096-2.153 9.17-3.466 10.615-.817 1.445 2.649 2.527 2.096 6.122 2.864 2.228.476 2.288 1.565 2.288 1.565s4.094-4.094 7.586-5.298 6.502-3.853 7.104-3.853 3.733.843 3.733.843l-.842 3.853zM355.748 268.007c5.298 1.927 20.952 1.325 37.689-4.094 16.737-5.418 21.554-6.382 29.742-3.371 8.188 3.01 11.733-6.5 6.356-8.109-8.447-2.528-34.569 12.65-53.482 4.133 0 0-.557 2.29.045 3.374 0 0-13.727.482-10.476-13.727 0 0 .935 5.187 7.425 4.591 12.274-1.127 14.028 7.515 40.017-.497 14.429-4.448 25.639-2.265 25.739 4.756.12 8.451-11.53 10.416-11.53 10.416s4.535 9.272 13.687 5.178c9.151-4.094 9.633 2.97 10.436 5.378s2.328 4.736 4.335 4.977c0 0 1.445 4.335.883 4.897s-4.335 5.298-8.108 5.298h-11.961s-2.167-5.378 2.007-5.459c4.174-.08 9.232-.401 8.589-2.649-.642-2.248-3.933-3.291-3.853-5.78 0 0-9.713 7.064-15.734-1.284l-.161 3.933s-7.305-1.365-9.954-7.225c0 0 .722 6.582-5.539 5.619 0 0 1.284 1.927 3.452 3.291 2.167 1.365-.08 4.335-4.255 6.823s-17.018 9.713-22.878 2.328 1.284-11.64 3.05-11.158c1.766.482 6.823 8.268 10.275 7.225 3.452-1.044 5.138-4.576 2.248-6.743-2.89-2.167-5.055-4.217-3.232-6.404 2.505-3.006 11.741-2.105 11.42-4.112-.321-2.007-8.91-1.445-14.53 4.174-5.619 5.619-30.023 18.543-39.736 10.355-9.713-8.187-1.966-16.134-1.966-16.134z"/></g><path fill="#FFD25A" d="M352.617 264.395s7.345 7.225 19.747 9.512c0 0-2.288 3.492-8.91 2.529 0 0 2.649 2.288 4.455 6.141 0 0-4.214.963-7.947-1.084 0 0 .482 3.131 2.288 5.659 0 0-4.937 0-9.151-3.733l-1.686 4.816s-2.89-1.927-4.696-5.659c0 0-3.371 2.649-6.743 2.649 0 0 1.204-3.612 1.204-5.659 0 0-4.816 2.89-8.79 1.806 0 0 .12-5.057 1.445-6.502 0 0-3.131.361-5.178-.722 0 0 1.204-2.769 1.806-4.576 0 0-3.372.12-5.419-1.806 0 0 6.502-2.529 7.947-4.937l19.628 1.566z"/><path fill="#FFBE5A" d="M340.776 244.166c1.445.803 3.773 2.569 4.736 5.539 0 0 2.649-3.853 7.225-4.576 0 0 2.007 2.248 1.445 8.108 0 0 5.057-1.445 7.787 1.204 0 0-5.378 1.204-7.867 5.699 0 0-.965 4.593.721 7.322 0 0-1.879.251-3.771-.579 0 0-.963 4.576 0 6.021 0 0-2.649-.321-4.094-3.131 0 0-2.167 3.291-2.007 5.298 0 0-2.89-1.686-3.05-4.174 0 0-2.007 3.773-4.174 4.094 0 0-.241-5.298-1.204-7.305 0 0-1.846 2.007-4.255 1.927 0 0 0-4.094 2.007-6.021 0 0-3.371 1.044-5.218-2.649 0 0 5.539 1.605 6.904-1.766 1.365-3.372 1.766-4.415 3.693-6.261 1.925-1.847 1.122-8.75 1.122-8.75z"/><path fill="#FFE15A" d="M352.617 259.699s-6.863 13.125-13.125 9.151c-6.86-4.354 1.686-14.57 2.769-15.653.001-.001 5.058 1.324 10.356 6.502z"/><path fill="#5ABEA0" d="M327.863 326.922s-.72-9.427-5.83-12.146c-4.806-2.557-7.642-3.836-8.194-7.112 0 0 4.176 1.918 8.588 3.116 3.987 1.083 7.878 7.831 6.697 15.422l-1.261.72z"/><path fill="#B46446" d="m311.732 334.673.65 1.199.473 2.577-.945 3.056s3.754 1.493 4.609 6.592c.587 3.5 2.127 4.255 3.073 3.536.945-.719 1.518-1.57.532-5.394-1.259-4.882-4.668-9.529-4.668-9.529l-2.659-4.075-1.065 2.038z"/><g fill="#5ABEA0"><path d="M315.455 336.71c-3.427-4.435-12.763-13.664-14.536-1.079 0 0-3.66-10.603 3.191-10.188 7.917.48 11.345 11.267 11.345 11.267z"/><path d="M312.382 335.871c-2.954-3.236-3.9-5.633-5.436-11.626s-2.009-7.791-3.782-7.671-2.836 2.038-2.836 5.873c0 0-5.2-4.675-1.654-8.39s11.463-1.678 11.936 4.914.355 11.027 2.718 16.541l-.946.359z"/><path d="M313.209 332.995s-6.263-13.784 11.345-21.215c0 0-15.599-4.195-13.709 17.979l2.364 3.236zM315.218 337.909s-13.236-5.034-12.054 7.192c0 0 2.245-5.753 8.745-3.596l3.309-3.596z"/></g><path fill="#B46446" d="M330.227 333.075c0 3.576 1.406 13.951-.591 15.262-1.005.659-3.841.12-3.604-2.397.236-2.517 1.359-14.743 1.359-17.739-.001-2.997 2.836 4.874 2.836 4.874z"/><g fill="#5ABEA0"><path d="M321.797 341.385c2.285-2.317 2.994-7.591 2.206-14.623 0 0 4.727 3.276 6.224 6.313 0 0 1.497-6.952-3.388-8.79s-7.485-.799-8.351 1.438c-.867 2.237 1.493 4.739 2.521 8.39.945 3.357.788 7.272.788 7.272z"/><path d="M329.912 331.237s.788-3.676 3.388-5.194c0 0 5.357 3.756 4.963 8.79 0 0 1.418-6.872-1.497-9.589s-6.224-3.436-7.878-1.039c-1.655 2.397 1.024 7.032 1.024 7.032z"/><path d="M331.172 324.205s1.654-9.829 5.83-11.986 11.896-4.155 12.369-4.635c0 0-9.218.479-10.715.479s-9.769 5.993-9.769 14.863.788 2.797 1.024 2.717c.237-.08 1.261-1.438 1.261-1.438z"/></g><path fill="#B46446" d="M335.013 350.195c.945 1.978 3.191 2.457 3.663 1.438.473-1.019 2.6-8.81 2.6-8.81l-3.014-1.438-3.249 8.81z"/><path fill="#5ABEA0" d="M352.68 317.493c3.703-2.158 6.145 4.235 6.145 4.235 0-7.527-2.364-9.909-8.272-7.032-1.78.867-3.081 2.682-4.04 4.787-2.992-8.594-9.589-8.463-9.589-8.463l-1.497 1.039c5.402 1.038 8.495 7.512 9.805 11.044-.706 2.577-1.047 5.075-1.193 6.505-3.54 3.67-5.775 11.776-5.775 11.776s2.541 1.498 3.014 1.438c0 0 1.654-5.094 3.723-4.974 2.068.12 4.491 3.416 4.55 5.514 0 0 3.073-6.233-.591-8.63-1.376-.901-2.477-1.242-3.366-1.259l2.716-3.056c4.432.839 7.504 5.034 7.504 5.034.09-7.491-3.218-8.953-6.706-8.325.625-3.015 1.995-8.714 3.572-9.633z"/><path fill="#B46446" d="M425.627 327.866v21.244c0 1.028-4.499 5.025-4.499 5.025h11.961s-3.841-4.454-3.841-5.025.878-19.645.878-19.645l-4.499-1.599z"/><g fill="#5ABEA0"><path d="M426.396 330.036c-2.853-.228-10.754 6.282-13.058 16.218 0 0-7.023-11.421 10.535-20.901 0 0-7.791-2.284-19.643 10.051-.64.666-1.207-18.617 20.082-13.477 0 0-8.12-11.764-24.8-2.513 0 0 11.083-19.873 27.434-2.056 0 0 .11-15.419.219-13.82.11 1.599 1.317 8.68 1.317 8.68l3.182-5.596-2.524 11.421s14.595-19.416 26.995.799c0 0-16.021-6.624-23.703.799 0 0 16.46-4.454 15.143 14.619 0 0-6.474-11.307-17.009-9.822 0 0 12.4 5.711 8.45 21.129-.001.002-7.473-15.119-12.62-15.531zM321.605 398.675c-.611-.828-1.467-1.225-2.307-1.328.323-1.114.538-1.623.452-2.434.257.064.501.179.764.21l.112-.917c-.975-.117-2.036-.554-3.128-1.22a3.321 3.321 0 0 0 1.16-2.547c0-1.179-.541-2.166-1.31-2.727-.769.561-1.31 1.548-1.31 2.727 0 .886.362 1.594.84 2.164a15.93 15.93 0 0 1-1.227-.955c-.107-.725-.384-1.455-1.028-2.042-.872-.794-1.965-1.059-2.898-.869-.103.946.262 2.011 1.134 2.805.672.613 1.464.823 2.225.839.173.147.355.295.547.444a3.563 3.563 0 0 0-1.649.196c-1.108.403-1.85 1.249-2.115 2.163.791.53 1.903.701 3.011.298.966-.352 1.59-1.061 1.925-1.838.649.415 1.36.759 2.096 1.035l-.117.015c-.024.665.019.938-.311 2.174a3.32 3.32 0 0 0-2.771-.393c-1.131.333-1.925 1.13-2.246 2.026.755.579 1.855.819 2.986.486.849-.25 1.427-.798 1.838-1.417-.155.469-.351.954-.57 1.447-.665.307-1.288.78-1.669 1.563-.516 1.06-.461 2.184-.016 3.025.937-.168 1.855-.819 2.371-1.88.398-.818.376-1.637.177-2.372.092-.208.182-.424.272-.65.087.519.298 1.044.653 1.526.7.949 1.721 1.422 2.673 1.418.286-.908.136-2.023-.564-2.972z"/></g><path fill="#FFECDE" d="M316.183 395.714c4.006 0 9.244-.154 9.09 3.852-.154 4.006-4.622 17.564 5.701 21.724s11.555 3.544 11.555 3.544l4.622 10.631 11.247-4.006-10.785-8.628s-.924-5.855-3.544-9.86c0 0 6.625-3.389 8.936-6.317l-4.622-.308s6.009-3.852 8.782-8.166l-3.235.308s3.698-3.698 4.622-8.012c0 0-6.009 6.009-12.171 6.779 0 0 2.619-6.779 3.235-9.398 0 0-4.622 2.927-7.857 4.16s-8.32 1.387-6.009 11.863c0 0-2.773-2.311-4.468-7.241-1.695-4.93-2.311-6.779-4.622-6.779-3.775 0-5.238 3.389-5.238 3.389l-5.239 2.465z"/><path fill="#B46446" d="M429.893 397.695c1.386-1.848 4.158-7.623 6.583-6.121 2.425 1.501 5.659 5.197 7.623 3.465 1.963-1.732 2.079-3.927-.924-4.966-3.003-1.039-6.352-2.772-8.431-2.079s-8.431 7.276-8.431 7.276l3.58 2.425z"/><path fill="#FFE15A" d="M411.991 402.661c-.115-2.656 1.677-14.19 8.893-12.704 3.927.808 5.858 4.971 10.972 6.93 5.428 2.079 8.893 3.349 7.854 6.93-1.039 3.58-3.003 7.854-7.507 8.893-4.504 1.039-20.212-10.049-20.212-10.049z"/><g fill="#5ABEA0"><path d="M407.256 412.17c-1.54.308-7.238 8.624-.462 17.093 0 0 8.316 3.388 14.937-1.848s1.694-7.854 1.694-7.854l-16.169-7.391z"/><path d="M407.834 413.98c-.693-1.039-.577-1.809-.577-1.809s-.346-11.934 4.62-12.165c4.966-.231 22.868 11.549 22.868 13.513 0 1.963-5.775 7.623-10.625 8.778s-16.286-8.317-16.286-8.317z"/></g><path fill="#B46446" d="M395.591 442.853s15.775-7.087 12.81-12.853c-2.14-4.16-6.95-1.494-7.71 1.682-.948 3.964-4.032 9.489-5.1 11.171z"/><path fill="#464655" d="m378.182 463-.912-.29c-.916-.294-22.694-7.308-44.83-21.899-29.727-19.59-45.44-43.5-45.44-69.141V232.392h182.363V371.67c0 25.641-15.713 49.552-45.44 69.142-22.136 14.592-43.914 21.606-44.83 21.899l-.911.289zm-85.17-224.596V371.67c0 54.045 75.919 81.823 85.17 85.005 9.241-3.182 85.17-31.003 85.17-85.005V238.404h-170.34z"/><g fill="#41479B"><path d="M94.316 0 0 0 0 19.977 94.316 81.77z"/><path d="M0 68.299 0 94.316 39.71 94.316z"/><path d="M0 161.684 0 187.701 39.71 161.684z"/><path d="M256 19.977 256 0 161.684 0 161.684 81.77z"/><path d="M256 187.701 256 161.684 216.29 161.684z"/><path d="M161.684 174.23 161.684 256 256 256 256 236.023z"/><path d="M256 94.316 256 68.299 216.29 94.316z"/><path d="M0 236.023 0 256 94.316 256 94.316 174.23z"/></g><g fill="#F5F5F5"><path d="M256 236.023 256 216.059 172.232 161.684 196.98 161.684 256 199.995 256 187.701 216.29 161.684 256 161.684 256 148.21 148.211 148.21 148.211 256 161.684 256 161.684 174.23z"/><path d="M0 148.21 0 161.684 39.71 161.684 0 187.701 0 206.602 69.197 161.684 93.945 161.684 0 222.666 0 236.023 94.316 174.23 94.316 256 107.789 256 107.789 148.21z"/><path d="M107.789 0 94.316 0 94.316 81.77 0 19.977 0 41.839 80.842 94.316 56.094 94.316 0 57.904 0 68.299 39.71 94.316 0 94.316 0 107.79 107.789 107.79z"/><path d="M256 107.79 256 94.316 216.29 94.316 256 68.299 256 49.157 186.432 94.316 161.684 94.316 256 33.093 256 19.977 161.684 81.77 161.684 0 148.211 0 148.211 107.79z"/></g><g fill="#FF4B55"><path d="M256 148.21 256 107.79 148.211 107.79 148.211 0 107.789 0 107.789 107.79 0 107.79 0 148.21 107.789 148.21 107.789 256 148.211 256 148.211 148.21z"/><path d="M69.197 161.684 0 206.602 0 222.666 93.945 161.684z"/><path d="M172.232 161.684 256 216.059 256 199.995 196.98 161.684z"/><path d="M80.842 94.316 0 41.839 0 57.904 56.094 94.316z"/><path d="M186.432 94.316 256 49.157 256 33.093 161.684 94.316z"/></g></svg>
